!!!!SEGMENT: d-b--slg-bohn-ms-mus-111--001-012_jarzebski-adam--canzoni-e-concerti-12-cantate-joh-gabrielis.krn
!!!cenid: 16xx:1785
!!!COM: Jarzębski, Adam
!!!COM-rismID: pe30017782
!!!CDT: 1590-1648
!!!CNT: Polish
!!!GTL: Canzoni e Concerti
!!!OTL: 12. Cantate Joh: Gabrielis
!!!OMV: 012
!!!PDT: 1627
!!!AGN:
!!!YEC: Copyright 2022 Narodowy Instytut Fryderyka Chopina (https://polishscores.org)
!!!YEM: License CC-BY-4.0 (https://creativecommons.org/licenses/by/4.0)
!!!SMS-siglum: D-B
!!!SMS-shelfmark: Slg Bohn Ms.mus. 111
!!!SMS-shelfwork: 001-012 G
!!!SMS-variant:
!!!SMS-altvar:
!!!NIFC-rismSourceID: 1001062014
!!!NIFC-rismChildID: 1001062014
!!!NIFC-islandoraID: none
!!!URL-pdf-islandora:
!!!URL-scan: https://digital.staatsbibliothek-berlin.de/werkansicht/?PPN=PPN1049147219 @EN{Scan on Staatsbibliothek zu Berlin Website} @PL{Skany w portalu Staatsbibliothek zu Berlin}
!!!IIIF:
!!!ONB-nifc: UWAGA: Prima vox: s. 22-23, Seconda vox: s. 82-83, Basso continuo: s. 172. Uwaga: proszę wpisywać partie tylko występujące w danym koncercie i nazywać partie wg określeń podawanych przy danym utworze. Kody instr. dla humdrumowców podane zostaną na forum.
!!!AIN: 1 viola
!!!key: g
**kern	**fba	**kern	**kern
*	*	*group1	*group1
*part3	*	*part2	*part1
*staff3	*	*staff2	*staff1
*I"Baſso Continúo.	*	*I"Baſtarda	*I"Canto
*mI"Basso continuo	*	*mI"Bastarda	*mI"Soprano
*I'bc	*	*I'vla bastarda	*I'S
*	*	*ICstr	*
*	*	*Iviola	*
*IGcont	*	*	*
*clefC4	*	*clefC4	*clefG2
*k[b-]	*	*k[b-]	*k[b-]
*g:	*	*g:	*g:
*M2/2	*	*M2/2	*M2/2
*met(C|)	*	*met(C|)	*met(C|)
*mmet(c|)	*	*mmet(c|)	*mmet(c|)
=1-	=1-	=1-	=1-
!!LO:TX:t=P:problem:all/right or middle	!	!
0G	.	0r	1g
=2-	=2-	=2-	=2-
.	.	.	2.b-/
.	.	.	4a/
=3-	=3-	=3-	=3-
!LO:TX:t=P:problem:kreska pseudotaktowa	!	!	!
1G	.	2r	4g/
.	.	.	4f/
.	.	2G/	[<2g/
=4-	=4-	=4-	=4-
*	*	*2\right	*
2G/	.	2.B-\	8g/L]
.	.	.	8a/
.	.	.	8b-/
.	.	.	8cc/J
2.G/	.	.	4dd\
.	.	4A/	4cc\
=5-	=5-	=5-	=5-
.	.	4G/	4b-/
4F/	.	4F/	4a/
!	!	!LO:TX:t=P:problem:kreska pseudotaktowa	!
2.G/	.	2G/	[2g/
=6-	=6-	=6-	=6-
.	.	8r	8g/L]
.	.	8F/L	8a/
4A/	.	8G/	8b-/
.	.	8A/J	8cc/J
4B-\	.	4B-\	4dd\
!LO:TX:t=P:problem:kreska pseudotaktowa	!	!LO:TX:t=P:problem:kreska pseudotaktowa	!
4c\	.	4c\	4ee\
=7-	=7-	=7-	=7-
*2\right	*	*	*
2d\	.	8d\L	8ff#X\L
.	.	16B-\L	16dd\L
!	!	!LO:SIC:s=16cJJ	!
.	.	16c\	16ee\JJ
!	!	!LO:SIC:s=16dLL	!
.	.	16d\	16ff#X\LL
!	!	!LO:TX:a:t=P:problem:♭ above	!
.	.	16e-X\	16gg\
.	.	16f\	16aa\
.	.	16d\JJ	16ff#X\JJ
*	*	*	*2\right
2e-X\	.	4.e-X\	2gg\
.	.	16f\LL	.
!	!	!LO:TX:t=P:problem:kreska pseudotaktowa	!
.	.	16g\JJ	.
*	*	*	*custos:ee
!	!	!	!LO:LB:g=original
=8-	=8-	=8-	=8-
2c\	.	8B-\L	8ee\L
.	.	16A\L	16cc\L
!	!	!LO:SIC:s=16B-JJ	!LO:SIC:s=16ddJJ
.	.	16B-\	16dd\
!	!	!LO:SIC:s=16cLL	!LO:SIC:s=16eeLL
.	.	16c\	16ee\
.	.	16d\	16ff#\
!	!	!LO:TX:a:t=P:problem:♭ above	!
.	.	16e-X\	16gg\
.	.	16c\JJ	16ee\JJ
!LO:TX:t=P:problem:kreska pseudotaktowa	!	!	!
2d\	.	4d\	16ff#X\LL
.	.	.	16gg\
.	.	.	16aa\
.	.	.	16gg\JJ
!	!	!LO:TX:t=P:problem:kreska pseudotaktowa	!
.	.	4D/	32ee\LLL
!	!	!	!LO:TX:a:t=P:problem:# above
.	.	.	32ff#X\
.	.	.	32gg\
!	!	!	!LO:TX:a:t=P:problem:# above
.	.	.	32ff#X\
.	.	.	32gg\
!	!	!	!LO:TX:a:t=P:problem:# above
.	.	.	32ff#X\
.	.	.	32ee\
!	!	!	!LO:TX:a:t=P:problem:# above
.	.	.	32ff#X\JJJ
=9-	=9-	=9-	=9-
1G	.	8G/	1gg
*	*	*clefF4	*
.	.	8GG/L	.
.	.	8GG/	.
.	.	8AA/J	.
.	.	8BB-/L	.
.	.	16C/L	.
.	.	16BB-/JJ	.
.	.	8AA/L	.
.	.	16BB-/L	.
!	!	!LO:TX:t=P:problem:kreska pseudotaktowa	!
.	.	16AA/JJ	.
=10-	=10-	=10-	=10-
!	!	!LO:TX:t=P:problem:mixed beam	!
1G	.	8GG/L	8r
.	.	8G\	8b-\L
.	.	8G\	8b-\
.	.	8A\J	8cc\J
.	.	8B-\L	8dd\L
.	.	16c\L	16ee-X\L
.	.	16B-\JJ	16dd\JJ
.	.	8A\L	8cc\L
.	.	16B-\L	16dd\L
!	!	!LO:TX:t=P:problem:kreska pseudotaktowa	!LO:TX:t=P:problem:kreska pseudotaktowa
.	.	16A\JJ	16cc\JJ
*clefF4	*	*	*
=11-	=11-	=11-	=11-
1G	.	8G\L	8b-/L
.	.	16A\L	16cc/L
.	.	16G\JJ	16b-/JJ
*	*	*custos:F#	*
!	!	!LO:LB:g=original	!
!	!	!LO:TX:a:t=P:problem:# above	!
.	.	8F#X\L	8a/L
.	.	16G\L	16b-/L
!	!	!LO:TX:a:t=P:problem:# above	!
.	.	16F#X\JJ	16a/JJ
!	!	!LO:TX:t=P:problem:mixed beam	!
.	.	8G\L	2g/
.	.	8GG/	.
.	.	8GG/	.
!	!	!LO:TX:t=P:problem:kreska pseudotaktowa	!
.	.	8AA/J	.
=12-	=12-	=12-	=12-
!	!	!LO:TX:t=P:problem:mixed beam	!
2.BB-/	.	8BB-/L	8r
.	.	8G\	8b-\L
.	.	8G\	8b-\
.	.	8A\J	8cc\J
*	*	*	*custos:dd
!	!	!	!LO:LB:g=original
.	.	16B-\LL	16dd\LL
.	.	16d\	16ffny\
!	!	!	!LO:TX:a:t=P:problem:♭ above
.	.	16c\	16ee-X\
.	.	16B-\JJ	16dd\JJ
!LO:TX:t=P:problem:kreska pseudotaktowa	!	!	!
4AA/	.	16A\LL	16cc\LL
!	!	!	!LO:TX:a:t=P:problem:♭ above
.	.	16c\	16ee-X\
.	.	16B-\	16dd\
!	!	!LO:TX:t=P:problem:kreska pseudotaktowa	!
.	.	16A\JJ	16cc\JJ
*custos:GG	*	*	*
!LO:LB:g=original	!	!	!
=13-	=13-	=13-	=13-
4GG/	.	16G\LL	16b-\LL
.	.	16B-\	16dd\
.	.	16A\	16cc\
.	.	16G\JJ	16b-\JJ
4FF/	.	16Fny\LL	16a/LL
.	.	16G\	16cc/
.	.	16A\	16b-/
.	.	16F\JJ	16a/JJ
!	!	!LO:TX:t=P:problem:mixed beam	!LO:TX:t=P:problem:kreska pseudotaktowa
2.GG/	.	8G\L	2g/
.	.	8DD/	.
.	.	8EE/	.
!	!	!LO:TX:t=P:problem:kreska pseudotaktowa	!
.	.	8FF/J	.
*	*	*custos:GG	*
!	!	!LO:LB:g=original	!
=14-	=14-	=14-	=14-
.	.	8GG/L	8r
.	.	8FF/	8a/L
4AA/	.	8GG/	8b-/
.	.	8AA/J	8cc/J
4BB-/	.	8BB-/L	8dd\L
.	.	8AA/	8cc\
!LO:TX:t=P:problem:kreska pseudotaktowa	!	!	!
4C/	.	8BB-/	8dd\
!	!	!LO:TX:t=P:problem:kreska pseudotaktowa	!LO:TX:t=P:problem:kreska pseudotaktowa
.	.	8C/J	8eeny\J
=15-	=15-	=15-	=15-
2D/	.	8D/L	8ff#X\L
.	.	8BB-/	8dd\
.	.	8C/	8ee\
!	!	!	!LO:TX:a:t=P:problem:# above
.	.	8D/J	8ff#X\J
2E-X\	.	4.E-X\	[2gg\
.	.	16F\LL	.
!	!	!LO:TX:t=P:problem:kreska pseudotaktowa	!
.	.	16G\JJ	.
=16-	=16-	=16-	=16-
2C/	.	8C/L	8gg\L]
.	.	16GG/L	16cc\L
!	!	!LO:SIC:s=16AAJJ	!
.	.	16AA/	16dd\JJ
!	!	!LO:SIC:s=16BB-LL	!
.	.	16BB-/	16ee\LL
.	.	16C/	16ff#\
.	.	16E-X/	16gg\
.	.	16C/JJ	16ee\JJ
!LO:TX:t=P:problem:kreska pseudotaktowa	!	!LO:TX:t=P:problem:kreska pseudotaktowa	!
!	!	!	!LO:TX:a:t=P:problem:# above
2D/	.	2D/	16ff#X\LL
.	.	.	16gg\
.	.	.	16aa\
.	.	.	16gg\JJ
*	*	*	*custos:ee
!	!	!	!LO:LB:g=original
.	.	.	32ee\LLL
!	!	!	!LO:TX:a:t=P:problem:# above
.	.	.	32ff#X\
.	.	.	32gg\
!	!	!	!LO:TX:a:t=P:problem:# above
.	.	.	32ff#X\
.	.	.	32gg\
!	!	!	!LO:TX:a:t=P:problem:# above
.	.	.	32ff#X\
.	.	.	32gg\
!	!	!	!LO:TX:a:t=P:problem:# above
.	.	.	32ff#X\JJJ
=17-	=17-	=17-	=17-
1GG	.	4GG/	1gg
*	*	*clefC4	*
*	*	*k[b-]	*
.	.	4.d\	.
.	.	16e-X\LL	.
.	.	16d\JJ	.
.	.	8c\L	.
!	!	!LO:TX:t=P:problem:kreska pseudotaktowa	!
.	.	8d\J	.
*	*	*custos:B-	*
!	!	!LO:LB:g=original	!
=18-	=18-	=18-	=18-
!LO:TX:t=P:problem:kreska pseudotaktowa	!	!	!
1GG	.	4B-\	4r
.	.	8G/L	4.dd\
.	.	8A/J	.
.	.	8B-\L	.
.	.	16c\L	16ee-X\LL
.	.	16B-\JJ	16dd\JJ
.	.	8A\L	8cc\L
!	!	!LO:TX:t=P:problem:kreska pseudotaktowa	!LO:TX:t=P:problem:kreska pseudotaktowa
.	.	8B-\J	8dd\J
=19-	=19-	=19-	=19-
2GG/	.	2G/	4b-/
.	.	.	8g/L
.	.	.	8a/J
2.GG/	.	2r	8b-/L
.	.	.	16cc/L
.	.	.	16b-/JJ
.	.	.	8a/L
!	!	!	!LO:TX:t=P:problem:kreska pseudotaktowa
.	.	.	8b-/J
=20-	=20-	=20-	=20-
.	.	8r	2g/
.	.	8F/L	.
4AA/	.	8G/	.
.	.	8A/J	.
4BB-/	.	8B-\L	8r
.	.	8A\	8cc\L
!LO:TX:t=P:problem:kreska pseudotaktowa	!	!	!
4C/	.	8B-\	8dd\
!	!	!LO:TX:t=P:problem:kreska pseudotaktowa	!LO:TX:t=P:problem:kreska pseudotaktowa
.	.	8c\J	8eeny\J
=21-	=21-	=21-	=21-
2D/	.	8d\L	8ffny\L
.	.	16e-X\L	16ggny\L
.	.	16d\JJ	16ff\JJ
!	!	!	!LO:TX:a:t=P:problem:♭ above
!	!	!	!
.	.	8c\L	8ee-X\L
.	.	8d\J	8ff\J
2BB-/	.	8B-\L	8dd\L
.	.	16c\L	16ee-X\L
.	.	16B-\JJ	16dd\JJ
.	.	8A\L	8cc\L
!	!	!LO:TX:t=P:problem:kreska pseudotaktowa	!LO:TX:t=P:problem:kreska pseudotaktowa
.	.	8B-\J	8dd\J
=22-	=22-	=22-	=22-
!	!	!	!LO:SIC:s=16b-L
2GG/	.	2G/	16b-/
.	.	.	8gg\
!	!	!	!LO:SIC:s=16ffJ
.	.	.	16ff\
*	*	*	*custos:ee
!	!	!	!LO:LB:g=original
.	.	.	16ee-\LL
.	.	.	16dd\
.	.	.	16cc\
.	.	.	16dd\JJ
!LO:TX:t=P:problem:kreska pseudotaktowa	!	!	!
2AA/	.	2A/	16ee-\LL
.	.	.	16a\
!	!	!	!LO:N:acc=#
!	!	!	!
.	.	.	16bn\
!	!	!	!LO:TX:a:t=P:problem:# above
.	.	.	16cc#X\JJ
.	.	.	32dd\LLL
!	!	!	!LO:TX:a:t=P:problem:# above
.	.	.	32cc#X\
.	.	.	32dd\
!	!	!	!LO:TX:a:t=P:problem:# above
.	.	.	32cc#X\
.	.	.	32dd\
.	.	.	32cc#\
.	.	.	32b\
!	!	!	!LO:TX:a:t=P:problem:# above
.	.	.	32cc#X\JJJ
*	*	*custos:D	*
!	!	!LO:LB:g=original	!
=23-	=23-	=23-	=23-
!	!	!	!LO:TX:t=P:problem:kreska pseudotaktowa
2D/	.	4D/	1dd
.	.	4d\	.
2.D/	.	4A/	.
.	.	4F/	.
=24-	=24-	=24-	=24-
.	.	2D/	4r
4D/	.	.	4dd\
!LO:TX:t=P:problem:kreska pseudotaktowa	!	!	!
2D/	.	4r	4a/
!	!	!LO:TX:t=P:problem:kreska pseudotaktowa	!LO:TX:t=P:problem:kreska pseudotaktowa
.	.	4d\	4f/
*custos:G	*	*	*
!LO:LB:g=original	!	!	!
=25-	=25-	=25-	=25-
1G	.	4B-\	4d/
.	.	4G/	4dd\
.	.	8B-\L	4b-y/
.	.	16G\L	.
.	.	16A\JJ	.
!	!	!	!LO:TX:t=P:problem:mixed beam
.	.	16B-\LL	8g/L
.	.	16G\	.
!	!	!	!LO:TX:t=P:problem:kreska pseudotaktowa
.	.	16B-\	[>8dd\J
!	!	!LO:TX:t=P:problem:kreska pseudotaktowa	!
.	.	16c\JJ	.
=26-	=26-	=26-	=26-
!	!	!	!LO:TX:t=P:problem:mixed beam
2D/	.	2d\	8dd\LL]
.	.	.	16d/
.	.	.	16e/JJ
.	.	.	16f/LL
.	.	.	16d/
.	.	.	16f/
.	.	.	16g/JJ
*	*	*clefF4	*
!LO:TX:t=P:problem:kreska pseudotaktowa	!	!	!
2D/	.	4r	8a/L
.	.	.	8b-/J
!	!	!	!LO:TX:t=P:problem:kreska pseudotaktowa
.	.	4D/	4a/
=27-	=27-	=27-	=27-
2.G\	.	4GG/	2g/
.	.	16G\LL	.
.	.	16A\	.
.	.	16B-\	.
.	.	16c\JJ	.
.	.	8d\L	2r
.	.	8G\J	.
!	!	!LO:TX:t=P:problem:mixed beam	!
4C/	.	8c\L	.
.	.	8C/J	.
*	*	*custos:F	*custos:a
!	!	!LO:LB:g=original	!LO:LB:g=original
=28-	=28-	=28-	=28-
2F\	.	8.F\L	1r
.	.	16G\Jk	.
.	.	8A\L	.
.	.	16B-\L	.
.	.	16c\JJ	.
!LO:TX:t=P:problem:kreska pseudotaktowa	!	!	!
2G\	.	8.G\L	.
.	.	16A\Jk	.
.	.	8B-\L	.
.	.	16c\L	.
!	!	!LO:TX:t=P:problem:kreska pseudotaktowa	!
.	.	16d\JJ	.
=29-	=29-	=29-	=29-
2A\	.	1A	4r
.	.	.	16a/LL
.	.	.	16b-/
.	.	.	16ccny/
.	.	.	16dd/JJ
2AA/	.	.	8eeny\L
.	.	.	8a\J
.	.	.	8cc/L
!	!	!	!LO:TX:t=P:problem:kreska pseudotaktowa
.	.	.	8a/J
=30-	=30-	=30-	=30-
4F\	.	0r	4d/
2D/	.	.	16dd\LL
.	.	.	16ee\
.	.	.	16ff\
.	.	.	16gg\JJ
!	!	!	!LO:TX:t=P:problem:mixed beam
.	.	.	8aa\L
.	.	.	8ff\
!LO:TX:t=P:problem:kreska pseudotaktowa	!	!	!
4GG/	.	.	8gg\
!	!	!	!LO:TX:t=P:problem:kreska pseudotaktowa
!	!	!	!LO:N:acc=#
.	.	.	8bn/J
=31-	=31-	=31-	=31-
2C/	.	.	8.cc\L
.	.	.	16dd\Jk
.	.	.	8ee\L
.	.	.	16ff\L
.	.	.	16gg\JJ
2D/	.	.	8.dd\L
.	.	.	16ee\Jk
.	.	.	8ff\L
.	.	.	16gg\L
.	.	.	16aa\JJ
=32-	=32-	=32-	=32-
!LO:TX:t=P:problem:kreska pseudotaktowa	!	!	!LO:TX:t=P:problem:kreska pseudotaktowa
1AA	.	2r	1ee
.	.	8r	.
.	.	8A\L	.
.	.	8A\	.
!	!	!LO:TX:t=P:problem:kreska pseudotaktowa	!
.	.	8G\J	.
=33-	=33-	=33-	=33-
2.D/	.	16F\LL	8r
.	.	16D\	.
.	.	16F\	8aa\L
.	.	16D\JJ	.
.	.	8F\L	8aa\
.	.	8E\J	8gg\J
.	.	8D/L	16ff\LL
.	.	.	16dd\
.	.	8D/	16ff\
.	.	.	16dd\JJ
4C/	.	8D/	8ee\L
!	!	!LO:TX:t=P:problem:kreska pseudotaktowa	!
!	!	!	!LO:TX:a:t=P:problem:♭ above
.	.	8C/J	8ee-X\J
=34-	=34-	=34-	=34-
4BB-/	.	16BB-/LL	8dd\L
.	.	16GG/	.
.	.	16BB-/	8dd\
.	.	16GG/JJ	.
4AA/	.	8BB-/L	8dd\
.	.	8AA/J	8cc\J
!LO:TX:t=P:problem:kreska pseudotaktowa	!	!LO:TX:t=P:problem:mixed beam	!
*	*	*custos:GG	*
!	!	!LO:LB:g=original	!
2GG/	.	8GG/L	16b-y/LL
.	.	.	16g/
.	.	8G\	16b-/
.	.	.	16g/JJ
.	.	8G\	8b-/L
!	!	!LO:TX:t=P:problem:kreska pseudotaktowa	!
.	.	8F\J	8a/J
=35-	=35-	=35-	=35-
!	!	!	!LO:TX:t=P:problem:kreska pseudotaktowa
2C/	.	16E-X\LL	1g
.	.	16C\	.
.	.	16E-\	.
.	.	16D\JJ	.
.	.	8C/L	.
.	.	16BB-/L	.
.	.	16AA/JJ	.
2GG/	.	4GG/	.
.	.	8FF/L	.
!	!	!LO:TX:t=P:problem:kreska pseudotaktowa	!
.	.	8EE/J	.
=36-	=36-	=36-	=36-
!LO:TX:t=P:problem:kreska pseudotaktowa	!	!	!
1D	.	8DD/	1r
.	.	4d\	.
.	.	16c\LL	.
.	.	16B-\JJ	.
.	.	16A\LL	.
.	.	16G\	.
.	.	16F\	.
.	.	16E-\JJ	.
.	.	16D/LL	.
.	.	16C/	.
.	.	16BB-/	.
!	!	!LO:TX:t=P:problem:kreska pseudotaktowa	!
.	.	16AA/JJ	.
*custos:GG	*	*	*
!LO:LB:g=original	!	!	!
=37-	=37-	=37-	=37-
!	!	!LO:TX:t=P:problem:kreska pseudotaktowa	!
2GG/	.	1GG	4r
.	.	.	16g/LL
.	.	.	16a/
.	.	.	16b-/
.	.	.	16cc/JJ
2GG/	.	.	8dd\L
.	.	.	8b-\J
.	.	.	8gg\L
!	!	!	!LO:TX:t=P:problem:kreska pseudotaktowa
.	.	.	8dd\J
=38-	=38-	=38-	=38-
2.C/	.	4r	2eeny\
.	.	16C/LL	.
.	.	16D/	.
.	.	16Eny/	.
.	.	16F/JJ	.
*	*	*custos:G	*
!	!	!LO:LB:g=original	!
!	!	!LO:TX:t=P:problem:mixed beam	!
.	.	8G\L	2r
.	.	8C/J	.
!LO:TX:t=P:problem:kreska pseudotaktowa	!	!LO:TX:t=P:problem:mixed beam	!
4FF/	.	8F\L	.
.	.	8FF/J	.
=39-	=39-	=39-	=39-
2BB-/	.	8.BB-/L	1r
.	.	16C/Jk	.
.	.	8D\L	.
.	.	16E\L	.
.	.	16F\JJ	.
2C/	.	8.C/L	.
.	.	16D/Jk	.
.	.	8E-X\L	.
.	.	16F\L	.
!	!	!LO:TX:t=P:problem:kreska pseudotaktowa	!
.	.	16G\JJ	.
=40-	=40-	=40-	=40-
2D/	.	4D/	4r
.	.	16G\LL	16b-\LL
.	.	16A\	16cc\
.	.	16B-\	16dd\
.	.	16c\JJ	16ee\JJ
!LO:TX:t=P:problem:kreska pseudotaktowa	!	!LO:TX:t=P:problem:mixed beam	!
2D/	.	8d\L	8ff#X\L
.	.	8D/J	8dd\
.	.	8F\L	8aa\
!	!	!LO:TX:t=P:problem:kreska pseudotaktowa	!LO:TX:t=P:problem:kreska pseudotaktowa
!	!	!	!LO:TX:a:t=P:problem:# above
.	.	8D\J	8ff#X\J
=41-	=41-	=41-	=41-
2.G\	.	2G\	4gg\
*	*	*	*custos:g
!	!	!	!LO:LB:g=original
.	.	.	16g/LL
.	.	.	16a/
.	.	.	16b-/
.	.	.	16cc/JJ
!	!	!	!LO:TX:t=P:problem:mixed beam
.	.	2r	8dd\L
.	.	.	8b-\
4C/	.	.	8cc\
!	!	!	!LO:TX:t=P:problem:kreska pseudotaktowa
.	.	.	8e/J
=42-	=42-	=42-	=42-
2F\	.	1r	8.f/L
.	.	.	16g/Jk
.	.	.	8a/L
.	.	.	16b-/L
.	.	.	16cc/JJ
!LO:TX:t=P:problem:kreska pseudotaktowa	!	!	!
2G\	.	.	8.g/L
.	.	.	16a/Jk
.	.	.	8b-\L
.	.	.	16cc\L
!	!	!	!LO:TX:t=P:problem:kreska pseudotaktowa
.	.	.	16dd\JJ
=43-	=43-	=43-	=43-
!	!	!	!LO:TX:t=P:problem:mixed beam
1A	.	2r	8a\L
.	.	.	8ee\
.	.	.	8ee\
.	.	.	8dd\J
.	.	8r	16cc\LL
.	.	.	16dd\
.	.	8A\L	16ee\
.	.	.	16dd\JJ
.	.	8A\	8cc\L
!	!	!LO:TX:t=P:problem:kreska pseudotaktowa	!
!	!	!	!LO:TX:t=P:problem:kreska pseudotaktowa
!	!	!	!LO:N:acc=#
!	!	!	!LO:TX:a:t=P:problem:# above
.	.	8G\J	8bn\J
*	*	*custos:F	*
!	!	!LO:LB:g=original	!
=44-	=44-	=44-	=44-
!LO:TX:t=P:problem:kreska pseudotaktowa	!	!	!
1D	.	16F\LL	2a/
.	.	16G\	.
.	.	16A\	.
.	.	16G\JJ	.
.	.	8F\L	.
.	.	8Eny\J	.
!	!	!LO:TX:t=P:problem:kreska pseudotaktowa	!
.	.	2D/	8r
.	.	.	8f/L
.	.	.	8f/
.	.	.	8e/J
*	*	*	*custos:d
!	!	!	!LO:LB:g=original
=45-	=45-	=45-	=45-
2.BB-/	.	8r	16d/LL
.	.	.	16e/
.	.	8D/L	16f/
.	.	.	16g/JJ
.	.	8D/	8f/L
.	.	8C/J	8e/J
!	!	!	!LO:TX:t=P:problem:kreska pseudotaktowa
.	.	16BB-/LL	2d/
.	.	16C/	.
.	.	16D/	.
.	.	16C/JJ	.
4AA/	.	8BB-/L	.
!	!	!LO:TX:t=P:problem:kreska pseudotaktowa	!
.	.	8AA/J	.
=46-	=46-	=46-	=46-
!LO:TX:t=P:problem:kreska pseudotaktowa	!	!	!
1GG	.	2GG/	8r
.	.	.	8dd\L
.	.	.	8dd\
.	.	.	8cc\J
.	.	8r	16b-y\LL
.	.	.	16cc\
.	.	8G\L	16dd\
.	.	.	16cc\JJ
.	.	8G\	8b-/L
!	!	!LO:TX:t=P:problem:kreska pseudotaktowa	!LO:TX:t=P:problem:kreska pseudotaktowa
.	.	8F\J	8a/J
=47-	=47-	=47-	=47-
1E-X	.	16E-X\LL	1g
.	.	16F\	.
.	.	16G\	.
.	.	16F\JJ	.
.	.	8E-X\L	.
.	.	8D\J	.
*	*	*custos:C	*
!	!	!LO:LB:g=original	!
.	.	8.C/L	.
.	.	16D/Jk	.
.	.	16E-X/LL	.
.	.	16C/	.
.	.	16D/	.
!	!	!LO:TX:t=P:problem:kreska pseudotaktowa	!
.	.	16E-/JJ	.
=48-	=48-	=48-	=48-
!LO:TX:t=P:problem:kreska pseudotaktowa	!	!	!
1D	.	8D/L	2r
.	.	16C/L	.
!	!	!LO:SIC:s=16BB-JJ	!
.	.	16BB-/	.
!	!	!LO:SIC:s=16AALL	!
.	.	16AA/	.
.	.	16GG/	.
.	.	16FF/	.
.	.	16EE/JJ	.
!	!	!LO:TX:t=P:problem:kreska pseudotaktowa	!
.	.	2DD/	8r
.	.	.	8dd\L
.	.	.	8dd\
!	!	!	!LO:TX:t=P:problem:kreska pseudotaktowa
.	.	.	8cc\J
=49-	=49-	=49-	=49-
2G\	.	2GG/	16b-\LL
.	.	.	16cc\
.	.	.	16dd\
.	.	.	16cc\JJ
.	.	.	16b-\LL
.	.	.	16cc\
.	.	.	16dd\
.	.	.	16b-\JJ
!	!	!	!LO:TX:t=P:problem:kreska pseudotaktowa
1F	.	8r	2a/
.	.	8A\L	.
.	.	8A\	.
!	!	!LO:TX:t=P:problem:kreska pseudotaktowa	!
.	.	8G\J	.
=50-	=50-	=50-	=50-
.	.	16F\LL	8r
.	.	16G\	.
.	.	16A\	8a/L
.	.	16G\JJ	.
.	.	16F\LL	8a/
.	.	16G\	.
.	.	16Eny\	8g/J
.	.	16F\JJ	.
!LO:TX:t=P:problem:kreska pseudotaktowa	!	!	!
2B-\	.	16D\LL	16f/LL
.	.	16E\	16g/
.	.	16F\	16a/
.	.	16E\JJ	16g/JJ
*	*	*custos:D	*custos:f
!	!	!LO:LB:g=original	!LO:LB:g=original
.	.	16D/LL	16f/LL
.	.	16E/	16g/
.	.	16C/	16e/
!	!	!LO:TX:t=P:problem:kreska pseudotaktowa	!
.	.	16D/JJ	16f/JJ
*custos:G	*	*	*
!LO:LB:g=original	!	!	!
=51-	=51-	=51-	=51-
!	!	!	!LO:TX:t=P:problem:mixed beam
1G	.	16BB-/LL	8g/L
.	.	16C/	.
.	.	16D/	8dd\
.	.	16C/JJ	.
.	.	16BB-/LL	8dd\
.	.	16C/	.
.	.	16AA/	8cc\J
.	.	16BB-/JJ	.
.	.	2GG/	16b-\LL
.	.	.	16cc\
.	.	.	16dd\
.	.	.	16cc\JJ
.	.	.	16b-/LL
.	.	.	16cc/
.	.	.	16a/
.	.	.	16b-/JJ
=52-	=52-	=52-	=52-
!	!	!	!LO:TX:t=P:problem:kreska pseudotaktowa
2.E-X\	.	4r	1g
.	.	4G\	.
.	.	4G\	.
!LO:TX:t=P:problem:kreska pseudotaktowa	!	!	!
4D/	.	4F\	.
=53-	=53-	=53-	=53-
1.C	.	8E-X\L	4r
.	.	8F\	.
.	.	8G\	4gg\
.	.	8F\J	.
.	.	8E-X\L	4gg\
.	.	8F\	.
.	.	8D\	4ffny\
!	!	!LO:TX:t=P:problem:kreska pseudotaktowa	!
.	.	8E-\J	.
=54-	=54-	=54-	=54-
.	.	8C/L	8ee-X\L
.	.	8D/	8ff\
.	.	8E-X/	8gg\
.	.	8D/J	8ff\J
!LO:TX:t=P:problem:kreska pseudotaktowa	!	!	!
2C/	.	4C/	4ee-X\
.	.	8BB-/L	8dd\L
!	!	!	!LO:TX:t=P:problem:kreska pseudotaktowa
.	.	8AA/J	8cc\J
*	*	*custos:GG	*
!	!	!LO:PB:g=original	!
=55-	=55-	=55-	=55-
!	!	!LO:TX:t=P:problem:mixed beam	!
2GG/	.	8GG/L	8dd\L
.	.	8G\	8b-\
.	.	8G\	8b-\
.	.	8A\J	8cc\J
2G\	.	8B-\L	8dd\L
.	.	16c\L	16ee-X\L
.	.	16B-\JJ	16dd\JJ
.	.	8.A\L	8.cc\L
!	!	!LO:TX:t=P:problem:kreska pseudotaktowa	!
.	.	16G\Jk	16b-\Jk
*	*	*	*custos:cc
!	!	!	!LO:LB:g=original
=56-	=56-	=56-	=56-
!LO:TX:t=P:problem:kreska pseudotaktowa	!	!	!
1F	.	8A\L	1cc
.	.	16F\L	.
!	!	!LO:SIC:s=16GJJ	!
.	.	16G\	.
!	!	!LO:SIC:s=16ALL	!
.	.	16A\	.
.	.	16B-\	.
.	.	16c\	.
.	.	16A\JJ	.
.	.	16B-\LL	.
.	.	16A\	.
.	.	16B-\	.
!	!	!LO:SIC:s=16AJJ	!
.	.	16A\	.
!	!	!LO:SIC:s=16B-LL	!
.	.	16B-\	.
.	.	16A\	.
.	.	16G\	.
!	!	!LO:TX:t=P:problem:kreska pseudotaktowa	!
.	.	16A\JJ	.
=57-	=57-	=57-	=57-
1BB-	.	2B-\	8r
.	.	.	8dd\L
.	.	.	8dd\
.	.	.	8eeny\J
.	.	2r	8ff\L
.	.	.	16gg\L
.	.	.	16ff\JJ
.	.	.	8.ee\L
!	!	!	!LO:TX:t=P:problem:kreska pseudotaktowa
.	.	.	16dd\Jk
=58-	=58-	=58-	=58-
!LO:TX:t=P:problem:kreska pseudotaktowa	!	!	!
1AA	.	1r	8.cc#X\L
.	.	.	16dd\Jk
!	!	!	!LO:TX:t=P:problem:mixed beam
.	.	.	16ee\LL
.	.	.	16a/
!	!	!	!LO:N:acc=#
!	!	!	!LO:TX:a:t=P:problem:# above
.	.	.	16bn/
!	!	!	!LO:TX:a:t=P:problem:# above
.	.	.	16cc#X/JJ
.	.	.	16dd\LL
!	!	!	!LO:TX:a:t=P:problem:# above
.	.	.	16cc#X\
.	.	.	16dd\
!	!	!	!LO:TX:a:t=P:problem:# above
!	!	!	!LO:SIC:s=16cc#JJ
.	.	.	16cc#X\
!	!	!	!LO:SIC:s=16ddLL
.	.	.	16dd\
!	!	!	!LO:TX:a:t=P:problem:# above
.	.	.	16cc#X\
!	!	!	!LO:N:acc=#
.	.	.	16bn\
!	!	!	!LO:TX:a:t=P:problem:# above
.	.	.	16cc#X\JJ
=59-	=59-	=59-	=59-
2DD/	#	8r	2dd\
.	.	8D\L	.
!	!	!LO:TX:a:t=P:problem:# above	!
.	.	8F#X\	.
.	.	8A\J	.
!	!	!LO:TX:t=P:problem:kreska pseudotaktowa	!
2D/	#	2d\	8r
.	.	.	8d/L
!	!	!	!LO:TX:a:t=P:problem:# above
.	.	.	8f#X/
!	!	!	!LO:TX:t=P:problem:kreska pseudotaktowa
.	.	.	8a/J
=60-	=60-	=60-	=60-
2D/	.	8r	2dd\
.	.	8D\L	.
!	!	!LO:TX:a:t=P:problem:# above	!
.	.	8F#X\	.
.	.	8A\J	.
!LO:TX:t=P:problem:kreska pseudotaktowa	!	!LO:SIC:s=8dL	!
2D/	.	8d\	2r
!	!	!LO:SIC:s=16DL	!
.	.	16D\LL	.
!	!	!LO:SIC:s=16EJJ	!
.	.	16Eny\	.
!	!	!LO:TX:a:t=P:problem:# above	!
!	!	!LO:SIC:s=16F#LL	!
.	.	16F#X\	.
.	.	16G\	.
.	.	16A\	.
!	!	!LO:TX:a:t=P:problem:# above	!
.	.	16F#X\JJ	.
*	*	*	*custos:g
!	!	!	!LO:LB:g=original
=61-	=61-	=61-	=61-
1GG	.	2G\	8r
.	.	.	8g\L
!	!	!	!LO:N:acc=#
.	.	.	8bn\
.	.	.	8dd\J
!	!	!	!LO:TX:t=P:problem:mixed beam
.	.	2r	8gg\L
.	.	.	16g/L
.	.	.	16a/JJ
!	!	!	!LO:N:acc=#
!	!	!	!LO:TX:a:t=P:problem:# above
.	.	.	16bn\LL
.	.	.	16ccny\
.	.	.	16dd\
!	!	!	!LO:TX:t=P:problem:kreska pseudotaktowa
!	!	!	!LO:N:acc=#
!	!	!	!LO:TX:a:t=P:problem:# above
.	.	.	16bn\JJ
=62-	=62-	=62-	=62-
!LO:TX:t=P:problem:kreska pseudotaktowa	!	!	!
1C	.	8r	2cc\
.	.	8C\L	.
.	.	8E\	.
.	.	8G\J	.
!	!	!LO:SIC:s=8cL	!
.	.	8c\	2r
!	!	!LO:SIC:s=16CL	!
.	.	16C/LL	.
!	!	!LO:SIC:s=16DJJ	!
.	.	16D/	.
!	!	!LO:SIC:s=16ELL	!
.	.	16E/	.
.	.	16Fny/	.
.	.	16G/	.
!	!	!LO:TX:t=P:problem:kreska pseudotaktowa	!
.	.	16E/JJ	.
=63-	=63-	=63-	=63-
1FF	.	2F\	8r
.	.	.	8fny/L
.	.	.	8a/
.	.	.	8cc/J
!	!	!	!LO:TX:t=P:problem:mixed beam
.	.	2r	8ff\L
.	.	.	16f/L
.	.	.	16g/JJ
.	.	.	16a/LL
.	.	.	16b-y/
.	.	.	16cc/
!	!	!	!LO:TX:t=P:problem:kreska pseudotaktowa
.	.	.	16a/JJ
=64-	=64-	=64-	=64-
2BB-/	.	8r	2b-/
.	.	8AA/L	.
.	.	8D/	.
.	.	8F/J	.
!LO:TX:t=P:problem:kreska pseudotaktowa	!	!	!
!	!	!LO:TX:t=P:problem:mixed beam	!
2GG/	.	8B-\L	2r
.	.	16GG/L	.
!	!	!LO:SIC:s=16AAJJ	!
.	.	16AA/	.
!	!	!LO:SIC:s=16BB-LL	!
.	.	16BB-/	.
.	.	16C/	.
.	.	16D/	.
.	.	16BB-/JJ	.
*custos:C	*	*	*
!LO:LB:g=original	!	!	!
=65-	=65-	=65-	=65-
1C	.	2C/	8r
.	.	.	8c/L
.	.	.	8e/
.	.	.	8g/J
!	!	!	!LO:TX:t=P:problem:mixed beam
.	.	2r	8cc\L
.	.	.	16c/L
.	.	.	16d/JJ
.	.	.	16e/LL
.	.	.	16f/
.	.	.	16g/
.	.	.	16e/JJ
*	*	*custos:F	*custos:f
!	!	!LO:LB:g=original	!LO:LB:g=original
=66-	=66-	=66-	=66-
*	*	*clefC4	*
!	!	!LO:MO:mod=*null	!
*	*	*k[b-]	*
!LO:TX:t=P:problem:kreska pseudotaktowa	!	!	!
1FF	.	8r	2f/
.	.	8F/L	.
.	.	8A/	.
.	.	8c/J	.
!	!	!LO:TX:t=P:problem:mixed beam	!LO:TX:t=P:problem:kreska pseudotaktowa
.	.	8f\L	2r
.	.	16F/L	.
!	!	!LO:SIC:s=16GJJ	!
.	.	16G/	.
!	!	!LO:SIC:s=16ALL	!
.	.	16A/	.
.	.	16B-/	.
.	.	16c/	.
.	.	16A/JJ	.
=67-	=67-	=67-	=67-
2GG/	.	2G/	8r
.	.	.	8g\L
.	.	.	8b-\
.	.	.	8dd\J
!	!	!	!LO:TX:t=P:problem:mixed beam
2G\	.	2r	8gg\L
.	.	.	16g/L
.	.	.	16a/JJ
.	.	.	16b-\LL
.	.	.	16cc\
.	.	.	16dd\
.	.	.	16b-\JJ
=68-	=68-	=68-	=68-
!LO:TX:t=P:problem:kreska pseudotaktowa	!	!	!
1F	.	8r	1cc
.	.	8F/L	.
.	.	8A/	.
.	.	[8c/J	.
.	.	16c/LL]	.
.	.	16F/	.
.	.	16G/	.
.	.	16A/JJ	.
.	.	32B-\LLL	.
.	.	32A\	.
.	.	32B-\	.
.	.	32A\	.
.	.	32B-\	.
.	.	32A\	.
.	.	32G\	.
!	!	!LO:TX:t=P:problem:kreska pseudotaktowa	!
.	.	32A\JJJ	.
=69-	=69-	=69-	=69-
2BB-/	.	2B-\	8r
.	.	.	8b-\L
.	.	.	8dd\
.	.	.	8ff\J
!	!	!	!LO:TX:t=P:problem:kreska pseudotaktowa
2.BB-/	.	8r	2b-/
.	.	8B-\L	.
.	.	8d\	.
!	!	!LO:TX:t=P:problem:kreska pseudotaktowa	!
.	.	8f\J	.
*	*	*custos:B-	*
!	!	!LO:LB:g=original	!
=70-	=70-	=70-	=70-
.	.	8B-\L	8r
.	.	16A\L	16b-\LL
.	.	16B-\JJ	16cc\JJ
4GG/	.	8B-\L	8dd\L
.	.	8G\J	8b-\J
4C/	.	4c\	4cc\
!LO:TX:t=P:problem:kreska pseudotaktowa	!	!LO:TX:t=P:problem:kreska pseudotaktowa	!LO:TX:t=P:problem:kreska pseudotaktowa
4GG/	.	4G/	4b-/
=71-	=71-	=71-	=71-
!	!	!LO:TX:t=P:problem:mixed beam	!
2D/	.	8d\L	2a/
.	.	16D/L	.
!	!	!LO:SIC:s=16EJJ	!
.	.	16E/J	.
!	!	!LO:SIC:s=8F#L	!
.	.	8F#X/	.
.	.	8D/J	.
*	*	*clefF4	*
!	!	!	!LO:TX:t=P:problem:kreska pseudotaktowa
!	!	!LO:TX:t=P:problem:mixed beam	!
2.GG/	.	8G\L	2g/
.	.	8GG/	.
.	.	8BB-/	.
!	!	!LO:TX:t=P:problem:kreska pseudotaktowa	!
.	.	8D/J	.
*	*	*	*custos:g
!	!	!	!LO:LB:g=original
=72-	=72-	=72-	=72-
.	.	2GG/	8r
.	.	.	8g/L
4GG/	.	.	8b-/
.	.	.	8dd/J
!	!	!	!LO:TX:t=P:problem:mixed beam
4C/	.	8r	8cc\L
.	.	8C\L	8ee-X\
!LO:TX:t=P:problem:kreska pseudotaktowa	!	!	!
4GG/	.	8E\	8gg\
!	!	!LO:TX:t=P:problem:kreska pseudotaktowa	!LO:TX:t=P:problem:kreska pseudotaktowa
.	.	8G\J	8b-/J
=73-	=73-	=73-	=73-
!	!	!	!LO:TX:t=P:problem:mixed beam
2D/	.	4D/	8dd\L
.	.	.	8d/
.	.	4DD/	8f/
.	.	.	8a/J
!	!	!LO:TX:t=P:problem:kreska pseudotaktowa	!
4GG/	.	2GG/	8b-/L
.	.	.	8g/
2G\	.	.	8b-/
.	.	.	8dd/J
*	*	*clefC4	*
=74-	=74-	=74-	=74-
.	.	8r	1g
.	.	8G/L	.
4G\	.	8B-/	.
.	.	8d/J	.
*	*	*custos:c	*
!	!	!LO:LB:g=original	!
!	!	!LO:TX:t=P:problem:mixed beam	!
4C/	.	8c\L	.
.	.	8C/	.
!LO:TX:t=P:problem:kreska pseudotaktowa	!	!	!
4E-X\	.	8E-X/	.
!	!	!LO:TX:t=P:problem:kreska pseudotaktowa	!
.	.	8G/J	.
=75-	=75-	=75-	=75-
2D/	.	2D/	8r
.	.	.	16a/LL
!	!	!	!LO:SIC:s=16gJJ
.	.	.	16g/J
!	!	!	!LO:SIC:s=8fL
.	.	.	8f/
.	.	.	8d/J
!	!	!	!LO:TX:t=P:problem:kreska pseudotaktowa
4BB-/	.	8r	2dd\
.	.	16d\LL	.
.	.	16c\JJ	.
2G\	.	8B-/L	.
!	!	!LO:TX:t=P:problem:kreska pseudotaktowa	!
.	.	8G/J	.
=76-	=76-	=76-	=76-
.	.	4g\	8r
.	.	.	16gg\LL
.	.	.	16ff\JJ
4C/	.	4c\	8eeny\L
.	.	.	8cc\J
*custos:F	*	*	*
!LO:LB:g=original	!	!	!LO:TX:t=P:problem:kreska pseudotaktowa
4F\	.	8r	2a/
.	.	16A/LL	.
!	!	!LO:SIC:s=16GJJ	!
.	.	16G/J	.
!LO:TX:t=P:problem:kreska pseudotaktowa	!	!LO:SIC:s=8FL	!
4D/	.	8Fny/	.
!	!	!LO:TX:t=P:problem:kreska pseudotaktowa	!
.	.	8D/J	.
*	*	*	*custos:ee
!	!	!	!LO:LB:g=original
=77-	=77-	=77-	=77-
2G\	.	2A/	8r
.	.	.	16ee\LL
.	.	.	16dd\JJ
.	.	.	8cc\L
.	.	.	8a\J
1D	.	8r	2aa\
.	.	16A/LL	.
!	!	!LO:SIC:s=16GJJ	!
.	.	16G/J	.
!	!	!LO:SIC:s=8FL	!
.	.	8F/	.
!	!	!LO:TX:t=P:problem:kreska pseudotaktowa	!
.	.	8D/J	.
=78-	=78-	=78-	=78-
.	.	2d\	8r
.	.	.	16a/LL
.	.	.	16g/JJ
.	.	.	8f/L
.	.	.	8d/J
*	*	*clefF4	*
!LO:TX:t=P:problem:kreska pseudotaktowa	!	!	!LO:TX:t=P:problem:kreska pseudotaktowa
2GG/	.	8r	2dd\
.	.	16D/LL	.
!	!	!LO:SIC:s=16CJJ	!
.	.	16C/J	.
!	!	!LO:SIC:s=8BB-L	!
.	.	8BB-/	.
.	.	8GG/J	.
*	*	*custos:C	*
!	!	!LO:LB:g=original	!
=79-	=79-	=79-	=79-
2C/	.	8.C/L	4r
.	.	16D/Jk	.
.	.	8.Eny\L	8.g/L
.	.	16F\Jk	16a/Jk
2GG/	.	8G\L	8b-\L
.	.	8A\	8cc\
.	.	8B-\	8dd\
!	!	!LO:TX:t=P:problem:kreska pseudotaktowa	!
.	.	8c\J	8ee\J
=80-	=80-	=80-	=80-
!LO:TX:t=P:problem:kreska pseudotaktowa	!	!	!
1D	.	4d\	8ff\L
.	.	.	8gg\
.	.	4.D/	8aa\
.	.	.	8gg\J
.	.	.	8ff\L
.	.	8C/L	8ee\
.	.	8BB-/	8dd\
!	!	!LO:TX:t=P:problem:kreska pseudotaktowa	!LO:TX:t=P:problem:kreska pseudotaktowa
.	.	8AA/J	8cc\J
=81-	=81-	=81-	=81-
2GG/	.	4GG/	8.b-/L
!	!	!	!LO:SIC:s=16aJ
.	.	.	16a/K
!	!	!	!LO:SIC:s=8gL
.	.	4.G\	8g/
.	.	.	8a/J
*	*	*	*custos:b-
!	!	!	!LO:LB:g=original
1GG	.	.	8b-\L
.	.	8A\L	8cc\
.	.	8B-\	8dd\
!	!	!LO:TX:t=P:problem:kreska pseudotaktowa	!LO:TX:t=P:problem:kreska pseudotaktowa
.	.	8c\J	8ee-X\J
=82-	=82-	=82-	=82-
.	.	8d\L	4.dd\
.	.	8c\	.
.	.	8B-\	.
.	.	8A\J	8cc\
!LO:TX:t=P:problem:kreska pseudotaktowa	!	!	!
2GG/	.	8G\L	8b-/L
.	.	8F\	8a/
.	.	8E\	8g/
!	!	!LO:TX:t=P:problem:kreska pseudotaktowa	!LO:TX:t=P:problem:kreska pseudotaktowa
!	!	!	!LO:TX:a:t=P:problem:# above
.	.	8D\J	8f#X/J
=83-	=83-	=83-	=83-
2C/	.	8C/L	4.g/
.	.	16D/L	.
.	.	16C/JJ	.
.	.	8.BB-/L	.
.	.	.	8a/
.	.	16AA/Jk	.
2GG/	.	8GG/L	8.b-/L
.	.	16AA/L	.
.	.	16GG/JJ	16b-/Jk
.	.	8.FF/L	8.cc\L
!	!	!	!LO:TX:t=P:problem:kreska pseudotaktowa
.	.	16EE/Jk	16cc\Jk
=84-	=84-	=84-	=84-
1D	.	1DD	8.dd\L
.	.	.	16dd\Jk
.	.	.	8.eeny\L
.	.	.	16ee\Jk
.	.	.	8ff#X\
.	.	.	4gg\
.	.	.	8ff#X\
=85-	=85-	=85-	=85-
!LO:SIC:s=1GG;	!	!LO:SIC:s=1GG;	!LO:SIC:s=1gg;
0GGl;;	.	0GGl;;	0lgg;;
==	==	==	==
*-	*-	*-	*-
!!!system-decoration: [(g1)]s3
!!!RDF**kern: > = above
!!!RDF**kern: < = below
!!!RDF**kern: l = terminal long
!!!filter-modern: sic -sq | shed -e "s/TX(.*):t=P:/tx$1:t=P:/LG" | shed -e "s/^(\d+[\/\\]right)/$1yy/I;s/^(\d+[\/\\]left)/$1yy/I" | shed -k -e "s/#X/#/g" |shed -k -e "s/-X/-/g" | shed -e "s/^custos:/Xcustos:/I" | shed -k -e "s/LO:N:vis/LO:n:vis:/L" | shed -e "s/:rj/:RJ/L" | shed -e "s/LO:DY:(a|b|rj)/LO:dy:$1/L" | shed -e "s/-//B" | tie -s | autostem -r  | modori -m
!!!ENC: Andrzej Gręziak
!!!END: 2022-11-04
!!!EED: Natalia Wrzos
!!!EEV: 2022-11-12
!!!EST: revision finshed 2022-11-29
!!!ENC-modern: Andrzej Borzym
!!!END-modern: 2022-12-06
